public/img/icons/building-icon.svg

<svg fill="none" height="56" viewBox="0 0 56 56" width="56" xmlns="http://www.w3.org/2000/svg" xmlns:xlink="http://www.w3.org/1999/xlink"><clipPath id="a"><path d="m0 0h56v56h-56z"/></clipPath><g clip-path="url(#a)" fill="#000"><path d="m55.1746 51.0569h-2.4689v-26.352c0-.4542-.3682-.8248-.8248-.8248-.4535 0-.8241.3682-.8241.8248v26.352h-9.8829l.0024-23.8831c0-.4542-.3682-.8248-.8248-.8248l-2.4689.0024v-16.46933h13.1766v8.23613c0 .4542.3682.8248.8247.8248.4536 0 .8242-.3682.8242-.8248l-.0024-9.06027c0-.45358-.3682-.82415-.8242-.82415h-3.2937v-2.46889c0-.45417-.3682-.82474-.8247-.82474h-9.8829v-.82474c0-.45358-.3682-.82415-.8242-.82415l-2.4689.00237v-2.468889c0-.454171-.3682-.824741-.8248-.824741h-12.3494c-.4542 0-.8248.368199-.8248.824741v2.468889h-2.4713c-.4536 0-.8241.3682-.8241.82415l.0023 9.05792h-13.17654c-.45418 0-.82476.3682-.82476.8247v37.0571h-2.468941c-.454181 0-.824759.3682-.824759.8247v3.2931c0 .4541.368207.8247.824759.8247h11.117341c.4542 0 .8248-.3682.8248-.8247 0-.4536-.3682-.8242-.8248-.8242h-10.29495v-1.6471h52.70575v1.6471h-35.8234c-.4542 0-.8248.3682-.8248.8242 0 .4541.3683.8247.8248.8247l36.6457-.0024c.4542 0 .8248-.3682.8248-.8247v-3.293c0-.4542-.3682-.8224-.8248-.8224zm-17.292-44.46846h9.0581v1.64652h-9.0581zm-15.6479-4.94251h10.7053v1.64651h-10.7053zm-4.1179 49.41097h-6.5868v-9.0579h6.5868zm6.5892 0h-4.9402v-9.8827c0-.4541-.3683-.8241-.8248-.8241h-8.2363c-.4542 0-.8242.3682-.8242.8241v9.8827h-4.94025v-36.2347h19.76335zm.8218-37.8818h-6.5868v-8.23614h17.2944v21.40944h-9.8828v-12.3491c0-.456-.3688-.8242-.8248-.8242zm14.0007 37.8818h-13.1765v-23.059h13.1765z"/><path d="m8.23626 20.5866c.45418 0 .82476-.3682.82476-.8247v-1.6466c0-.4542-.36821-.8242-.82476-.8242-.45418 0-.82476.3682-.82476.8242v1.6466c0 .4565.3682.8247.82476.8247z"/><path d="m12.6276 20.5866c.4541 0 .8247-.3682.8247-.8247v-1.6466c0-.4542-.3682-.8242-.8247-.8242-.4542 0-.8248.3682-.8248.8242v1.6466c0 .4565.3706.8247.8248.8247z"/><path d="m17.0187 20.5866c.4542 0 .8248-.3682.8248-.8247v-1.6466c0-.4542-.3682-.8242-.8248-.8242-.4542 0-.8247.3682-.8247.8242v1.6466c.0023.4565.3705.8247.8247.8247z"/><path d="m21.4129 20.5866c.4542 0 .8248-.3682.8248-.8247v-1.6466c0-.4542-.3683-.8242-.8248-.8242-.4542 0-.8248.3682-.8248.8242v1.6466c0 .4565.3682.8247.8248.8247z"/><path d="m8.23626 26.3515c.45418 0 .82476-.3682.82476-.8248v-1.6465c0-.4542-.36821-.8242-.82476-.8242-.45418 0-.82476.3682-.82476.8242v1.6465c0 .4566.3682.8248.82476.8248z"/><path d="m12.6276 26.3515c.4541 0 .8247-.3682.8247-.8248v-1.6465c0-.4542-.3682-.8242-.8247-.8242-.4542 0-.8248.3682-.8248.8242v1.6465c0 .4566.3706.8248.8248.8248z"/><path d="m17.0187 26.3515c.4542 0 .8248-.3682.8248-.8248v-1.6465c0-.4542-.3682-.8242-.8248-.8242-.4542 0-.8247.3682-.8247.8242v1.6465c.0023.4566.3705.8248.8247.8248z"/><path d="m21.4129 26.3515c.4542 0 .8248-.3682.8248-.8248v-1.6465c0-.4542-.3683-.8242-.8248-.8242-.4542 0-.8248.3682-.8248.8242v1.6465c0 .4566.3682.8248.8248.8248z"/><path d="m8.23626 32.1158c.45418 0 .82476-.3682.82476-.8248v-1.6465c0-.4542-.36821-.8242-.82476-.8242-.45418 0-.82476.3682-.82476.8242v1.6465c0 .4566.3682.8248.82476.8248z"/><path d="m12.6276 32.1158c.4541 0 .8247-.3682.8247-.8248v-1.6465c0-.4542-.3682-.8242-.8247-.8242-.4542 0-.8248.3682-.8248.8242v1.6465c0 .4566.3706.8248.8248.8248z"/><path d="m17.0187 32.1158c.4542 0 .8248-.3682.8248-.8248v-1.6465c0-.4542-.3682-.8242-.8248-.8242-.4542 0-.8247.3682-.8247.8242v1.6465c.0023.4566.3705.8248.8247.8248z"/><path d="m21.4129 32.1158c.4542 0 .8248-.3682.8248-.8248v-1.6465c0-.4542-.3683-.8242-.8248-.8242-.4542 0-.8248.3682-.8248.8242v1.6465c0 .4566.3682.8248.8248.8248z"/><path d="m8.23626 37.8807c.45418 0 .82476-.3682.82476-.8248v-1.6465c0-.4542-.36821-.8242-.82476-.8242-.45418 0-.82476.3682-.82476.8242v1.6465c0 .4566.3682.8248.82476.8248z"/><path d="m12.6276 37.8807c.4541 0 .8247-.3682.8247-.8248v-1.6465c0-.4542-.3682-.8242-.8247-.8242-.4542 0-.8248.3682-.8248.8242v1.6465c0 .4566.3706.8248.8248.8248z"/><path d="m17.0187 37.8807c.4542 0 .8248-.3682.8248-.8248v-1.6465c0-.4542-.3682-.8242-.8248-.8242-.4542 0-.8247.3682-.8247.8242v1.6465c.0023.4566.3705.8248.8247.8248z"/><path d="m21.4129 37.8807c.4542 0 .8248-.3682.8248-.8248v-1.6465c0-.4542-.3683-.8242-.8248-.8242-.4542 0-.8248.3682-.8248.8242v1.6465c0 .4566.3682.8248.8248.8248z"/><path d="m33.7647 24.7048c.4542 0 .8248-.3682.8248-.8247v-16.46969c0-.45359-.3682-.82417-.8248-.82417-.4542 0-.8248.36821-.8248.82417v16.46969c0 .4565.3682.8247.8248.8247z"/><path d="m29.6462 24.7048c.4542 0 .8248-.3682.8248-.8247v-16.46969c0-.45359-.3682-.82417-.8248-.82417-.4542 0-.8247.36821-.8247.82417v16.46969c.0023.4565.3705.8247.8247.8247z"/><path d="m26.3531 7.41039c0-.45418-.3682-.82476-.8247-.82476-.4536 0-.8242.36821-.8242.82476v3.29371c0 .4536.3682.8242.8242.8242.4542 0 .8247-.3682.8247-.8242z"/><path d="m21.4128 6.58862c-.4541 0-.8247.36821-.8247.82476v3.29312c0 .4542.3682.8247.8247.8247.4542 0 .8248-.3682.8248-.8247v-3.29312c-.0024-.45655-.3706-.82476-.8248-.82476z"/><path d="m28.8245 32.1157h8.2363c.4542 0 .8247-.3682.8247-.8247 0-.4536-.3682-.8242-.8247-.8242h-8.2363c-.4542 0-.8248.3682-.8248.8242 0 .4565.3682.8247.8248.8247z"/><path d="m28.8245 36.2341h8.2363c.4542 0 .8247-.3682.8247-.8247 0-.4536-.3682-.8242-.8247-.8242h-8.2363c-.4542 0-.8248.3682-.8248.8242 0 .4542.3682.8247.8248.8247z"/><path d="m28.8245 40.3495h8.2363c.4542 0 .8247-.3682.8247-.8248 0-.4536-.3682-.8241-.8247-.8241h-8.2363c-.4542 0-.8248.3682-.8248.8241 0 .4566.3682.8248.8248.8248z"/><path d="m28.8245 44.4673h8.2363c.4542 0 .8247-.3682.8247-.8248 0-.4536-.3682-.8241-.8247-.8241h-8.2363c-.4542 0-.8248.3682-.8248.8241 0 .4566.3682.8248.8248.8248z"/><path d="m28.8245 48.5857h8.2363c.4542 0 .8247-.3682.8247-.8248 0-.4536-.3682-.8241-.8247-.8241h-8.2363c-.4542 0-.8248.3682-.8248.8241 0 .4566.3682.8248.8248.8248z"/><path d="m41.1762 12.3506c0-.4541-.3682-.8247-.8248-.8247-.4535 0-.8241.3682-.8241.8247v1.6466c0 .4542.3682.8247.8241.8247.4542 0 .8248-.3682.8248-.8247z"/><path d="m45.2942 12.3506c0-.4541-.3682-.8247-.8248-.8247-.4536 0-.8241.3682-.8241.8247v1.6466c0 .4542.3682.8247.8241.8247.4542 0 .8248-.3682.8248-.8247z"/><path d="m49.4097 12.3506c0-.4541-.3682-.8247-.8248-.8247-.4536 0-.8242.3682-.8242.8247v1.6466c0 .4542.3682.8247.8242.8247.4542 0 .8248-.3682.8248-.8247z"/><path d="m40.3515 17.2929c-.4542 0-.8248.3682-.8248.8248v1.6465c0 .4542.3682.8242.8248.8242.4542 0 .8247-.3682.8247-.8242v-1.6465c0-.4566-.3682-.8248-.8247-.8248z"/><path d="m45.2941 18.1153c0-.4542-.3682-.8248-.8248-.8248-.4536 0-.8242.3682-.8242.8248v1.6465c0 .4542.3682.8248.8242.8248.4542 0 .8248-.3682.8248-.8248z"/><path d="m49.4096 18.1153c0-.4542-.3682-.8248-.8248-.8248-.4535 0-.8241.3682-.8241.8248v1.6465c0 .4542.3682.8248.8241.8248.4542 0 .8248-.3682.8248-.8248z"/><path d="m45.2941 23.8802c0-.4541-.3682-.8247-.8248-.8247-.4536 0-.8242.3682-.8242.8247v1.6466c0 .4542.3682.8248.8242.8248.4542 0 .8248-.3683.8248-.8248z"/><path d="m49.4096 23.8802c0-.4541-.3682-.8247-.8248-.8247-.4535 0-.8241.3682-.8241.8247v1.6466c0 .4542.3682.8248.8241.8248.4542 0 .8248-.3683.8248-.8248z"/><path d="m45.2941 29.6445c0-.4542-.3682-.8248-.8248-.8248-.4536 0-.8242.3682-.8242.8248v1.6465c0 .4542.3682.8248.8242.8248.4542 0 .8248-.3682.8248-.8248z"/><path d="m49.4096 29.6445c0-.4542-.3682-.8248-.8248-.8248-.4535 0-.8241.3682-.8241.8248v1.6465c0 .4542.3682.8248.8241.8248.4542 0 .8248-.3682.8248-.8248z"/><path d="m45.2941 35.4094c0-.4542-.3682-.8247-.8248-.8247-.4536 0-.8242.3682-.8242.8247v1.6466c0 .4541.3682.8247.8242.8247.4542 0 .8248-.3682.8248-.8247z"/><path d="m49.4096 35.4094c0-.4542-.3682-.8247-.8248-.8247-.4535 0-.8241.3682-.8241.8247v1.6466c0 .4541.3682.8247.8241.8247.4542 0 .8248-.3682.8248-.8247z"/><path d="m45.2941 41.1742c0-.4541-.3682-.8247-.8248-.8247-.4536 0-.8242.3682-.8242.8247v1.6466c0 .4542.3682.8248.8242.8248.4542 0 .8248-.3682.8248-.8248z"/><path d="m49.4096 41.1742c0-.4541-.3682-.8247-.8248-.8247-.4535 0-.8241.3682-.8241.8247v1.6466c0 .4542.3682.8248.8241.8248.4542 0 .8248-.3682.8248-.8248z"/><path d="m44.4694 46.1144c-.4542 0-.8248.3682-.8248.8247v1.6466c0 .4542.3682.8247.8248.8247.4541 0 .8247-.3687.8247-.8247v-1.6466c0-.4565-.3682-.8247-.8247-.8247z"/><path d="m48.5878 46.1144c-.4542 0-.8247.3682-.8247.8247v1.6466c0 .4542.3682.8247.8247.8247.4542 0 .8248-.3687.8248-.8247v-1.6466c-.0024-.4565-.3706-.8247-.8248-.8247z"/></g></svg>

<svg width="56" height="56" viewBox="0 0 56 56" fill="none" xmlns="http://www.w3.org/2000/svg">
<g clip-path="url(#clip0_297_275)">
<path d="M55.1746 51.0569H52.7057V24.7049C52.7057 24.2507 52.3375 23.8801 51.8809 23.8801C51.4274 23.8801 51.0568 24.2483 51.0568 24.7049V51.0569H41.1739L41.1763 27.1738C41.1763 26.7196 40.8081 26.349 40.3515 26.349L37.8826 26.3514V9.88207H51.0592V18.1182C51.0592 18.5724 51.4274 18.943 51.8839 18.943C52.3375 18.943 52.7081 18.5748 52.7081 18.1182L52.7057 9.05793C52.7057 8.60435 52.3375 8.23378 51.8815 8.23378H48.5878V5.76489C48.5878 5.31072 48.2196 4.94015 47.7631 4.94015H37.8802V4.11541C37.8802 3.66183 37.512 3.29126 37.056 3.29126L34.5871 3.29363V0.824741C34.5871 0.37057 34.2189 0 33.7623 0H21.4129C20.9587 0 20.5881 0.368199 20.5881 0.824741V3.29363H18.1168C17.6632 3.29363 17.2927 3.66183 17.2927 4.11778L17.295 13.1757H4.11846C3.66428 13.1757 3.2937 13.5439 3.2937 14.0004V51.0575H0.824759C0.370578 51.0575 0 51.4257 0 51.8822V55.1753C0 55.6294 0.368207 56 0.824759 56H11.9421C12.3963 56 12.7669 55.6318 12.7669 55.1753C12.7669 54.7217 12.3987 54.3511 11.9421 54.3511H1.64715V52.704H54.3529V54.3511H18.5295C18.0753 54.3511 17.7047 54.7193 17.7047 55.1753C17.7047 55.6294 18.073 56 18.5295 56L55.1752 55.9976C55.6294 55.9976 56 55.6294 56 55.1729V51.8799C56 51.4257 55.6318 51.0575 55.1752 51.0575L55.1746 51.0569ZM37.8826 6.58844H46.9407V8.23496H37.8826V6.58844ZM22.2347 1.64593H32.94V3.29244H22.2347V1.64593ZM18.1168 51.0569H11.53V41.999H18.1168V51.0569ZM24.706 51.0569H19.7658V41.1742C19.7658 40.7201 19.3975 40.3501 18.941 40.3501H10.7047C10.2505 40.3501 9.8805 40.7183 9.8805 41.1742V51.0569H4.94025V14.8222H24.7036L24.706 51.0569ZM25.5278 13.1751H18.941V4.93896H36.2354V26.3484H26.3526V13.9993C26.3526 13.5433 25.9838 13.1751 25.5278 13.1751ZM39.5285 51.0569H26.352V27.9979H39.5285V51.0569Z" fill="black"/>
<path d="M8.23626 20.5866C8.69044 20.5866 9.06102 20.2184 9.06102 19.7619V18.1153C9.06102 17.6611 8.69281 17.2911 8.23626 17.2911C7.78208 17.2911 7.4115 17.6593 7.4115 18.1153V19.7619C7.4115 20.2184 7.7797 20.5866 8.23626 20.5866Z" fill="black"/>
<path d="M12.6276 20.5866C13.0817 20.5866 13.4523 20.2184 13.4523 19.7619V18.1153C13.4523 17.6611 13.0841 17.2911 12.6276 17.2911C12.1734 17.2911 11.8028 17.6593 11.8028 18.1153V19.7619C11.8028 20.2184 12.1734 20.5866 12.6276 20.5866Z" fill="black"/>
<path d="M17.0187 20.5866C17.4729 20.5866 17.8435 20.2184 17.8435 19.7619V18.1153C17.8435 17.6611 17.4753 17.2911 17.0187 17.2911C16.5645 17.2911 16.194 17.6593 16.194 18.1153V19.7619C16.1963 20.2184 16.5645 20.5866 17.0187 20.5866Z" fill="black"/>
<path d="M21.4129 20.5866C21.8671 20.5866 22.2377 20.2184 22.2377 19.7619V18.1153C22.2377 17.6611 21.8694 17.2911 21.4129 17.2911C20.9587 17.2911 20.5881 17.6593 20.5881 18.1153V19.7619C20.5881 20.2184 20.9563 20.5866 21.4129 20.5866Z" fill="black"/>
<path d="M8.23626 26.3515C8.69044 26.3515 9.06102 25.9833 9.06102 25.5267V23.8802C9.06102 23.426 8.69281 23.056 8.23626 23.056C7.78208 23.056 7.4115 23.4242 7.4115 23.8802V25.5267C7.4115 25.9833 7.7797 26.3515 8.23626 26.3515Z" fill="black"/>
<path d="M12.6276 26.3515C13.0817 26.3515 13.4523 25.9833 13.4523 25.5267V23.8802C13.4523 23.426 13.0841 23.056 12.6276 23.056C12.1734 23.056 11.8028 23.4242 11.8028 23.8802V25.5267C11.8028 25.9833 12.1734 26.3515 12.6276 26.3515Z" fill="black"/>
<path d="M17.0187 26.3515C17.4729 26.3515 17.8435 25.9833 17.8435 25.5267V23.8802C17.8435 23.426 17.4753 23.056 17.0187 23.056C16.5645 23.056 16.194 23.4242 16.194 23.8802V25.5267C16.1963 25.9833 16.5645 26.3515 17.0187 26.3515Z" fill="black"/>
<path d="M21.4129 26.3515C21.8671 26.3515 22.2377 25.9833 22.2377 25.5267V23.8802C22.2377 23.426 21.8694 23.056 21.4129 23.056C20.9587 23.056 20.5881 23.4242 20.5881 23.8802V25.5267C20.5881 25.9833 20.9563 26.3515 21.4129 26.3515Z" fill="black"/>
<path d="M8.23626 32.1158C8.69044 32.1158 9.06102 31.7476 9.06102 31.291V29.6445C9.06102 29.1903 8.69281 28.8203 8.23626 28.8203C7.78208 28.8203 7.4115 29.1885 7.4115 29.6445V31.291C7.4115 31.7476 7.7797 32.1158 8.23626 32.1158Z" fill="black"/>
<path d="M12.6276 32.1158C13.0817 32.1158 13.4523 31.7476 13.4523 31.291V29.6445C13.4523 29.1903 13.0841 28.8203 12.6276 28.8203C12.1734 28.8203 11.8028 29.1885 11.8028 29.6445V31.291C11.8028 31.7476 12.1734 32.1158 12.6276 32.1158Z" fill="black"/>
<path d="M17.0187 32.1158C17.4729 32.1158 17.8435 31.7476 17.8435 31.291V29.6445C17.8435 29.1903 17.4753 28.8203 17.0187 28.8203C16.5645 28.8203 16.194 29.1885 16.194 29.6445V31.291C16.1963 31.7476 16.5645 32.1158 17.0187 32.1158Z" fill="black"/>
<path d="M21.4129 32.1158C21.8671 32.1158 22.2377 31.7476 22.2377 31.291V29.6445C22.2377 29.1903 21.8694 28.8203 21.4129 28.8203C20.9587 28.8203 20.5881 29.1885 20.5881 29.6445V31.291C20.5881 31.7476 20.9563 32.1158 21.4129 32.1158Z" fill="black"/>
<path d="M8.23626 37.8807C8.69044 37.8807 9.06102 37.5125 9.06102 37.0559V35.4094C9.06102 34.9552 8.69281 34.5852 8.23626 34.5852C7.78208 34.5852 7.4115 34.9534 7.4115 35.4094V37.0559C7.4115 37.5125 7.7797 37.8807 8.23626 37.8807Z" fill="black"/>
<path d="M12.6276 37.8807C13.0817 37.8807 13.4523 37.5125 13.4523 37.0559V35.4094C13.4523 34.9552 13.0841 34.5852 12.6276 34.5852C12.1734 34.5852 11.8028 34.9534 11.8028 35.4094V37.0559C11.8028 37.5125 12.1734 37.8807 12.6276 37.8807Z" fill="black"/>
<path d="M17.0187 37.8807C17.4729 37.8807 17.8435 37.5125 17.8435 37.0559V35.4094C17.8435 34.9552 17.4753 34.5852 17.0187 34.5852C16.5645 34.5852 16.194 34.9534 16.194 35.4094V37.0559C16.1963 37.5125 16.5645 37.8807 17.0187 37.8807Z" fill="black"/>
<path d="M21.4129 37.8807C21.8671 37.8807 22.2377 37.5125 22.2377 37.0559V35.4094C22.2377 34.9552 21.8694 34.5852 21.4129 34.5852C20.9587 34.5852 20.5881 34.9534 20.5881 35.4094V37.0559C20.5881 37.5125 20.9563 37.8807 21.4129 37.8807Z" fill="black"/>
<path d="M33.7647 24.7048C34.2189 24.7048 34.5895 24.3366 34.5895 23.8801V7.41041C34.5895 6.95682 34.2213 6.58624 33.7647 6.58624C33.3105 6.58624 32.9399 6.95445 32.9399 7.41041V23.8801C32.9399 24.3366 33.3081 24.7048 33.7647 24.7048Z" fill="black"/>
<path d="M29.6462 24.7048C30.1004 24.7048 30.471 24.3366 30.471 23.8801V7.41041C30.471 6.95682 30.1028 6.58624 29.6462 6.58624C29.192 6.58624 28.8215 6.95445 28.8215 7.41041V23.8801C28.8238 24.3366 29.192 24.7048 29.6462 24.7048Z" fill="black"/>
<path d="M26.3531 7.41039C26.3531 6.95621 25.9849 6.58563 25.5284 6.58563C25.0748 6.58563 24.7042 6.95384 24.7042 7.41039V10.7041C24.7042 11.1577 25.0724 11.5283 25.5284 11.5283C25.9826 11.5283 26.3531 11.1601 26.3531 10.7041V7.41039Z" fill="black"/>
<path d="M21.4128 6.58862C20.9587 6.58862 20.5881 6.95683 20.5881 7.41338V10.7065C20.5881 11.1607 20.9563 11.5312 21.4128 11.5312C21.867 11.5312 22.2376 11.163 22.2376 10.7065V7.41338C22.2352 6.95683 21.867 6.58862 21.4128 6.58862Z" fill="black"/>
<path d="M28.8245 32.1157H37.0608C37.515 32.1157 37.8855 31.7475 37.8855 31.291C37.8855 30.8374 37.5173 30.4668 37.0608 30.4668H28.8245C28.3703 30.4668 27.9997 30.835 27.9997 31.291C27.9997 31.7475 28.3679 32.1157 28.8245 32.1157Z" fill="black"/>
<path d="M28.8245 36.2341H37.0608C37.515 36.2341 37.8855 35.8659 37.8855 35.4094C37.8855 34.9558 37.5173 34.5852 37.0608 34.5852H28.8245C28.3703 34.5852 27.9997 34.9534 27.9997 35.4094C27.9997 35.8636 28.3679 36.2341 28.8245 36.2341Z" fill="black"/>
<path d="M28.8245 40.3495H37.0608C37.515 40.3495 37.8855 39.9813 37.8855 39.5247C37.8855 39.0711 37.5173 38.7006 37.0608 38.7006H28.8245C28.3703 38.7006 27.9997 39.0688 27.9997 39.5247C27.9997 39.9813 28.3679 40.3495 28.8245 40.3495Z" fill="black"/>
<path d="M28.8245 44.4673H37.0608C37.515 44.4673 37.8855 44.0991 37.8855 43.6425C37.8855 43.1889 37.5173 42.8184 37.0608 42.8184H28.8245C28.3703 42.8184 27.9997 43.1866 27.9997 43.6425C27.9997 44.0991 28.3679 44.4673 28.8245 44.4673Z" fill="black"/>
<path d="M28.8245 48.5857H37.0608C37.515 48.5857 37.8855 48.2175 37.8855 47.7609C37.8855 47.3073 37.5173 46.9368 37.0608 46.9368H28.8245C28.3703 46.9368 27.9997 47.305 27.9997 47.7609C27.9997 48.2175 28.3679 48.5857 28.8245 48.5857Z" fill="black"/>
<path d="M41.1762 12.3506C41.1762 11.8965 40.808 11.5259 40.3514 11.5259C39.8979 11.5259 39.5273 11.8941 39.5273 12.3506V13.9972C39.5273 14.4514 39.8955 14.8219 40.3514 14.8219C40.8056 14.8219 41.1762 14.4537 41.1762 13.9972V12.3506Z" fill="black"/>
<path d="M45.2942 12.3506C45.2942 11.8965 44.926 11.5259 44.4694 11.5259C44.0158 11.5259 43.6453 11.8941 43.6453 12.3506V13.9972C43.6453 14.4514 44.0135 14.8219 44.4694 14.8219C44.9236 14.8219 45.2942 14.4537 45.2942 13.9972V12.3506Z" fill="black"/>
<path d="M49.4097 12.3506C49.4097 11.8965 49.0415 11.5259 48.5849 11.5259C48.1313 11.5259 47.7607 11.8941 47.7607 12.3506V13.9972C47.7607 14.4514 48.1289 14.8219 48.5849 14.8219C49.0391 14.8219 49.4097 14.4537 49.4097 13.9972V12.3506Z" fill="black"/>
<path d="M40.3515 17.2929C39.8973 17.2929 39.5267 17.6611 39.5267 18.1177V19.7642C39.5267 20.2184 39.8949 20.5884 40.3515 20.5884C40.8057 20.5884 41.1762 20.2202 41.1762 19.7642V18.1177C41.1762 17.6611 40.808 17.2929 40.3515 17.2929Z" fill="black"/>
<path d="M45.2941 18.1153C45.2941 17.6611 44.9259 17.2905 44.4693 17.2905C44.0157 17.2905 43.6451 17.6587 43.6451 18.1153V19.7618C43.6451 20.216 44.0133 20.5866 44.4693 20.5866C44.9235 20.5866 45.2941 20.2184 45.2941 19.7618V18.1153Z" fill="black"/>
<path d="M49.4096 18.1153C49.4096 17.6611 49.0414 17.2905 48.5848 17.2905C48.1313 17.2905 47.7607 17.6587 47.7607 18.1153V19.7618C47.7607 20.216 48.1289 20.5866 48.5848 20.5866C49.039 20.5866 49.4096 20.2184 49.4096 19.7618V18.1153Z" fill="black"/>
<path d="M45.2941 23.8802C45.2941 23.4261 44.9259 23.0555 44.4693 23.0555C44.0157 23.0555 43.6451 23.4237 43.6451 23.8802V25.5268C43.6451 25.981 44.0133 26.3516 44.4693 26.3516C44.9235 26.3516 45.2941 25.9833 45.2941 25.5268V23.8802Z" fill="black"/>
<path d="M49.4096 23.8802C49.4096 23.4261 49.0414 23.0555 48.5848 23.0555C48.1313 23.0555 47.7607 23.4237 47.7607 23.8802V25.5268C47.7607 25.981 48.1289 26.3516 48.5848 26.3516C49.039 26.3516 49.4096 25.9833 49.4096 25.5268V23.8802Z" fill="black"/>
<path d="M45.2941 29.6445C45.2941 29.1903 44.9259 28.8197 44.4693 28.8197C44.0157 28.8197 43.6451 29.1879 43.6451 29.6445V31.291C43.6451 31.7452 44.0133 32.1158 44.4693 32.1158C44.9235 32.1158 45.2941 31.7476 45.2941 31.291V29.6445Z" fill="black"/>
<path d="M49.4096 29.6445C49.4096 29.1903 49.0414 28.8197 48.5848 28.8197C48.1313 28.8197 47.7607 29.1879 47.7607 29.6445V31.291C47.7607 31.7452 48.1289 32.1158 48.5848 32.1158C49.039 32.1158 49.4096 31.7476 49.4096 31.291V29.6445Z" fill="black"/>
<path d="M45.2941 35.4094C45.2941 34.9552 44.9259 34.5847 44.4693 34.5847C44.0157 34.5847 43.6451 34.9529 43.6451 35.4094V37.056C43.6451 37.5101 44.0133 37.8807 44.4693 37.8807C44.9235 37.8807 45.2941 37.5125 45.2941 37.056V35.4094Z" fill="black"/>
<path d="M49.4096 35.4094C49.4096 34.9552 49.0414 34.5847 48.5848 34.5847C48.1313 34.5847 47.7607 34.9529 47.7607 35.4094V37.056C47.7607 37.5101 48.1289 37.8807 48.5848 37.8807C49.039 37.8807 49.4096 37.5125 49.4096 37.056V35.4094Z" fill="black"/>
<path d="M45.2941 41.1742C45.2941 40.7201 44.9259 40.3495 44.4693 40.3495C44.0157 40.3495 43.6451 40.7177 43.6451 41.1742V42.8208C43.6451 43.275 44.0133 43.6456 44.4693 43.6456C44.9235 43.6456 45.2941 43.2774 45.2941 42.8208V41.1742Z" fill="black"/>
<path d="M49.4096 41.1742C49.4096 40.7201 49.0414 40.3495 48.5848 40.3495C48.1313 40.3495 47.7607 40.7177 47.7607 41.1742V42.8208C47.7607 43.275 48.1289 43.6456 48.5848 43.6456C49.039 43.6456 49.4096 43.2774 49.4096 42.8208V41.1742Z" fill="black"/>
<path d="M44.4694 46.1144C44.0152 46.1144 43.6446 46.4826 43.6446 46.9391V48.5857C43.6446 49.0399 44.0128 49.4104 44.4694 49.4104C44.9235 49.4104 45.2941 49.0417 45.2941 48.5857V46.9391C45.2941 46.4826 44.9259 46.1144 44.4694 46.1144Z" fill="black"/>
<path d="M48.5878 46.1144C48.1336 46.1144 47.7631 46.4826 47.7631 46.9391V48.5857C47.7631 49.0399 48.1313 49.4104 48.5878 49.4104C49.042 49.4104 49.4126 49.0417 49.4126 48.5857V46.9391C49.4102 46.4826 49.042 46.1144 48.5878 46.1144Z" fill="black"/>
</g>
<defs>
<clipPath id="clip0_297_275">
<rect width="56" height="56" fill="white"/>
</clipPath>
</defs>
</svg>
